Newaita-dark/apps/48/putty.svg

<svg height="48pt" viewBox="0 0 48 48" width="48pt" xmlns="http://www.w3.org/2000/svg" xmlns:xlink="http://www.w3.org/1999/xlink"><linearGradient id="a" gradientUnits="userSpaceOnUse" x1="22.822494" x2="22.822494" y1="42.0509045" y2="44.03547050005"><stop offset="0" stop-opacity=".27451"/><stop offset="1" stop-opacity="0"/></linearGradient><linearGradient id="b"><stop offset="0" stop-opacity=".313725"/><stop offset=".222222" stop-opacity=".27451"/><stop offset="1" stop-opacity="0"/></linearGradient><radialGradient id="c" cx="450.908936" cy="189.579361" gradientTransform="matrix(.00000026 -.117199 -.210958 -.00000015 79.18825 95.392999)" gradientUnits="userSpaceOnUse" r="21.166656" xlink:href="#b"/><radialGradient id="d" cx="450.908936" cy="189.579361" gradientTransform="matrix(-.00000026 .117199 .210958 .00000015 -23.62044 -11.291218)" gradientUnits="userSpaceOnUse" r="21.166656" xlink:href="#b"/><radialGradient id="e" cx="450.908936" cy="189.579361" gradientTransform="matrix(-.00000026 -.117199 .210958 -.00000015 -23.62044 95.392999)" gradientUnits="userSpaceOnUse" r="21.166656" xlink:href="#b"/><radialGradient id="f" cx="450.908936" cy="189.579361" gradientTransform="matrix(.00000026 .117199 -.210958 .00000015 79.188247 -11.291219)" gradientUnits="userSpaceOnUse" r="21.166656" xlink:href="#b"/><linearGradient id="g" gradientUnits="userSpaceOnUse" x1="15.876528" x2="15.876528" y1="22.2052265" y2="4.344137"><stop offset="0" stop-color="#aed581"/><stop offset="1" stop-color="#c5e1a5"/></linearGradient><linearGradient id="h"><stop offset="0" stop-color="#b0bec5"/><stop offset="1" stop-color="#cfd8dc"/></linearGradient><linearGradient id="i" gradientUnits="userSpaceOnUse" x1="169.333336" x2="169.333336" xlink:href="#h" y1="21.833076" y2="-9.916924"/><linearGradient id="j" gradientTransform="matrix(.0909178 0 0 .0947059 9.020748 31.964672)" gradientUnits="userSpaceOnUse" x1="254" x2="250.03125" y1="106.5" y2="-155.437302"><stop offset="0" stop-color="#5c6bc0"/><stop offset="1" stop-color="#7986cb"/></linearGradient><linearGradient id="k" gradientTransform="matrix(1.015152 0 0 1.010101 78.893951 125.924011)" gradientUnits="userSpaceOnUse" x1="254" x2="254" xlink:href="#h" y1="106.5" y2="74.75"/><path d="m15.875 42.050781h23.816406v1.984375h-23.816406zm0 0" fill="url(#a)"/><path d="m39.691406 42.050781h3.96875v-1.984375h-3.96875zm0 0" fill="url(#c)"/><path d="m15.875 42.050781h-3.96875v1.984375h3.96875zm0 0" fill="url(#d)"/><path d="m15.875 42.050781h-3.96875v-1.984375h3.96875zm0 0" fill="url(#e)"/><path d="m39.691406 42.050781h3.96875v1.984375h-3.96875zm0 0" fill="url(#f)"/><path d="m5.953125 4.34375h19.847656c1.09375 0 1.984375.890625 1.984375 1.984375v13.890625c0 1.097656-.890625 1.988281-1.984375 1.988281h-19.847656c-1.09375 0-1.984375-.890625-1.984375-1.988281v-13.890625c0-1.09375.890625-1.984375 1.984375-1.984375zm0 0" fill="url(#g)"/><path d="m105.823228-9.936249c-11.707216 0-21.164646 9.45743-21.164646 21.206308v10.582323h169.358827v-10.582323c0-11.748878-9.45743-21.206308-21.164645-21.206308zm0 0" fill="url(#i)" stroke="#212121" stroke-linecap="round" stroke-width="3" transform="matrix(.093759 0 0 .093759 0 20.158175)"/><path d="m105.823228.646073c2.916388 0 5.291161 2.374774 5.291161 5.332825 0 2.916388-2.374773 5.291161-5.291161 5.291161s-5.291162-2.374773-5.291162-5.291161c0-2.958051 2.374774-5.332825 5.291162-5.332825zm0 0" fill="#c5cae9" fill-opacity=".392157" stroke="#212121" stroke-linecap="round" stroke-width="3" transform="matrix(.093759 0 0 .093759 0 20.158175)"/><path d="m126.987873.646073c2.916388 0 5.291162 2.374774 5.291162 5.332825 0 2.916388-2.374774 5.291161-5.291162 5.291161s-5.291161-2.374773-5.291161-5.291161c0-2.958051 2.374773-5.332825 5.291161-5.332825zm0 0" fill="#c5cae9" fill-opacity=".392157" stroke="#212121" stroke-linecap="round" stroke-width="3" transform="matrix(.093759 0 0 .093759 0 20.158175)"/><path d="m148.152519.646073c2.916388 0 5.291161 2.374774 5.291161 5.332825 0 2.916388-2.374773 5.291161-5.291161 5.291161s-5.291162-2.374773-5.291162-5.291161c0-2.958051 2.374774-5.332825 5.291162-5.332825zm0 0" fill="#c5cae9" fill-opacity=".392157" stroke="#212121" stroke-linecap="round" stroke-width="3" transform="matrix(.093759 0 0 .093759 0 20.158175)"/><path d="m5.953125 22.171875c-1.097656 0-1.984375-.886719-1.984375-1.984375v-.25c0 1.101562.886719 1.984375 1.984375 1.984375h19.847656c1.097657 0 1.984375-.882813 1.984375-1.984375v.25c0 1.097656-.886718 1.984375-1.984375 1.984375zm0 0" fill-opacity=".235294"/><path d="m5.960938 4.457031c-1.101563 0-1.984376.882813-1.984376 1.984375v.246094c0-1.097656.882813-1.984375 1.984376-1.984375h19.84375c1.101562 0 1.984374.886719 1.984374 1.984375v-.246094c0-1.101562-.882812-1.984375-1.984374-1.984375zm0 0" fill="#fff" fill-opacity=".392157"/><path d="m5.953125 4.203125c-1.175781 0-2.125.949219-2.125 2.125v13.890625c0 1.175781.949219 2.128906 2.125 2.128906h19.847656c1.171875 0 2.125-.953125 2.125-2.128906v-13.890625c0-1.175781-.953125-2.125-2.125-2.125zm0 .28125h19.847656c1.023438 0 1.84375.820313 1.84375 1.84375v13.890625c0 1.027344-.820312 1.847656-1.84375 1.847656h-19.847656c-1.023437 0-1.84375-.820312-1.84375-1.847656v-13.890625c0-1.023437.820313-1.84375 1.84375-1.84375zm0 0" fill="#212121" fill-opacity=".94902"/><path d="m232.852764.646073c2.916388 0 5.291161 2.374774 5.291161 5.332825 0 2.916388-2.374773 5.291161-5.291161 5.291161-2.958051 0-5.291162-2.374773-5.291162-5.291161 0-2.958051 2.333111-5.332825 5.291162-5.332825zm0 0" fill="#c5cae9" fill-opacity=".392157" stroke="#212121" stroke-linecap="round" stroke-width="3" transform="matrix(.093759 0 0 .093759 0 20.158175)"/><path d="m13.832031 17.242188h27.902344c1.0625 0 1.925781.898437 1.925781 2.007812v20.796875c0 1.105469-.863281 2.003906-1.925781 2.003906h-27.902344c-1.0625 0-1.925781-.898437-1.925781-2.003906v-20.796875c0-1.109375.863281-2.007812 1.925781-2.007812zm0 0" fill="url(#j)"/><path d="m201.397434 201.418567c-11.915529 0-19.831439 9.665744-21.497947 21.372959v10.707311h232.852764v-10.707311c0-11.832203-9.582418-21.372959-21.497947-21.372959zm0 0" fill="url(#k)" stroke="#212121" stroke-linecap="round" stroke-width="3.037869" transform="matrix(.093759 0 0 .093759 0 20.158175)"/><path d="m13.832031 42.070312c-1.066406 0-1.925781-.894531-1.925781-2.003906v-.496094c0 1.109376.859375 2.003907 1.925781 2.003907h27.902344c1.066406 0 1.925781-.894531 1.925781-2.003907v.496094c0 1.109375-.859375 2.003906-1.925781 2.003906zm0 0" fill-opacity=".235294"/><g fill-opacity=".392157"><path d="m205.813679 212.125878c2.958051 0 5.374487 2.374773 5.374487 5.332824s-2.416436 5.332824-5.374487 5.332824-5.374487-2.374773-5.374487-5.332824 2.416436-5.332824 5.374487-5.332824zm0 0" fill="#c5cae9" stroke="#212121" stroke-linecap="round" stroke-width="3.037869" transform="matrix(.093759 0 0 .093759 0 20.158175)"/><path d="m227.311626 212.125878c2.958051 0 5.374487 2.374773 5.374487 5.332824s-2.416436 5.332824-5.374487 5.332824-5.374487-2.374773-5.374487-5.332824 2.416436-5.332824 5.374487-5.332824zm0 0" fill="#c5cae9" stroke="#212121" stroke-linecap="round" stroke-width="3.037869" transform="matrix(.093759 0 0 .093759 0 20.158175)"/><path d="m248.767911 212.125878c2.999713 0 5.374486 2.374773 5.374486 5.332824s-2.374773 5.332824-5.374486 5.332824c-2.958051 0-5.332825-2.374773-5.332825-5.332824s2.374774-5.332824 5.332825-5.332824zm0 0" fill="#c5cae9" stroke="#212121" stroke-linecap="round" stroke-width="3.037869" transform="matrix(.093759 0 0 .093759 0 20.158175)"/><path d="m386.213118 212.125878c2.958051 0 5.374487 2.374773 5.374487 5.332824s-2.416436 5.332824-5.374487 5.332824c-2.95805 0-5.374486-2.374773-5.374486-5.332824s2.416436-5.332824 5.374486-5.332824zm0 0" fill="#c5cae9" stroke="#212121" stroke-linecap="round" stroke-width="3.037869" transform="matrix(.093759 0 0 .093759 0 20.158175)"/><path d="m13.832031 17.242188c-1.066406 0-1.925781.894531-1.925781 2.007812v.496094c0-1.113282.859375-2.007813 1.925781-2.007813h27.902344c1.066406 0 1.925781.894531 1.925781 2.007813v-.496094c0-1.113281-.859375-2.007812-1.925781-2.007812zm0 0" fill="#fff"/></g><path d="m13.832031 17.105469c-1.144531 0-2.0625.960937-2.0625 2.144531v20.796875c0 1.179687.917969 2.144531 2.0625 2.144531h27.902344c1.144531 0 2.066406-.964844 2.066406-2.144531v-20.796875c0-1.183594-.921875-2.144531-2.066406-2.144531zm0 .277343h27.902344c.988281 0 1.785156.828126 1.785156 1.867188v20.796875c0 1.039063-.796875 1.863281-1.785156 1.863281h-27.902344c-.988281 0-1.785156-.824218-1.785156-1.863281v-20.796875c0-1.039062.796875-1.867188 1.785156-1.867188zm0 0" fill="#212121"/></svg>

<?xml version="1.0" encoding="UTF-8"?>
<svg xmlns="http://www.w3.org/2000/svg" xmlns:xlink="http://www.w3.org/1999/xlink" width="48pt" height="48pt" viewBox="0 0 48 48" version="1.1">
<defs>
<linearGradient id="linear0" gradientUnits="userSpaceOnUse" x1="254" y1="233.5" x2="254" y2="254.666672" gradientTransform="matrix(0.093759,0,0,0.093759,-0.992292,20.158178)">
<stop offset="0" style="stop-color:rgb(0%,0%,0%);stop-opacity:0.27451;"/>
<stop offset="1" style="stop-color:rgb(0%,0%,0%);stop-opacity:0;"/>
</linearGradient>
<radialGradient id="radial0" gradientUnits="userSpaceOnUse" cx="450.908936" cy="189.579361" fx="450.908936" fy="189.579361" r="21.166656" gradientTransform="matrix(0.000000261256,-0.117199,-0.210958,-0.000000152308,79.18825,95.392999)">
<stop offset="0" style="stop-color:rgb(0%,0%,0%);stop-opacity:0.313725;"/>
<stop offset="0.222222" style="stop-color:rgb(0%,0%,0%);stop-opacity:0.27451;"/>
<stop offset="1" style="stop-color:rgb(0%,0%,0%);stop-opacity:0;"/>
</radialGradient>
<radialGradient id="radial1" gradientUnits="userSpaceOnUse" cx="450.908936" cy="189.579361" fx="450.908936" fy="189.579361" r="21.166656" gradientTransform="matrix(-0.000000261256,0.117199,0.210958,0.000000152308,-23.62044,-11.291218)">
<stop offset="0" style="stop-color:rgb(0%,0%,0%);stop-opacity:0.313725;"/>
<stop offset="0.222222" style="stop-color:rgb(0%,0%,0%);stop-opacity:0.27451;"/>
<stop offset="1" style="stop-color:rgb(0%,0%,0%);stop-opacity:0;"/>
</radialGradient>
<radialGradient id="radial2" gradientUnits="userSpaceOnUse" cx="450.908936" cy="189.579361" fx="450.908936" fy="189.579361" r="21.166656" gradientTransform="matrix(-0.000000261256,-0.117199,0.210958,-0.000000152308,-23.62044,95.392999)">
<stop offset="0" style="stop-color:rgb(0%,0%,0%);stop-opacity:0.313725;"/>
<stop offset="0.222222" style="stop-color:rgb(0%,0%,0%);stop-opacity:0.27451;"/>
<stop offset="1" style="stop-color:rgb(0%,0%,0%);stop-opacity:0;"/>
</radialGradient>
<radialGradient id="radial3" gradientUnits="userSpaceOnUse" cx="450.908936" cy="189.579361" fx="450.908936" fy="189.579361" r="21.166656" gradientTransform="matrix(0.000000261256,0.117199,-0.210958,0.000000152308,79.188247,-11.291219)">
<stop offset="0" style="stop-color:rgb(0%,0%,0%);stop-opacity:0.313725;"/>
<stop offset="0.222222" style="stop-color:rgb(0%,0%,0%);stop-opacity:0.27451;"/>
<stop offset="1" style="stop-color:rgb(0%,0%,0%);stop-opacity:0;"/>
</radialGradient>
<linearGradient id="linear1" gradientUnits="userSpaceOnUse" x1="254" y1="106.5" x2="254" y2="-84" gradientTransform="matrix(0.093759,0,0,0.093759,-7.938258,12.219893)">
<stop offset="0" style="stop-color:rgb(68.235294%,83.529412%,50.588235%);stop-opacity:1;"/>
<stop offset="1" style="stop-color:rgb(77.254902%,88.235294%,64.705882%);stop-opacity:1;"/>
</linearGradient>
<linearGradient id="linear2" gradientUnits="userSpaceOnUse" x1="254" y1="106.5" x2="254" y2="74.75" gradientTransform="matrix(1,0,0,1,-84.666664,-84.666924)">
<stop offset="0" style="stop-color:rgb(69.019608%,74.509804%,77.254902%);stop-opacity:1;"/>
<stop offset="1" style="stop-color:rgb(81.176471%,84.705882%,86.27451%);stop-opacity:1;"/>
</linearGradient>
<linearGradient id="linear3" gradientUnits="userSpaceOnUse" x1="254" y1="106.5" x2="250.03125" y2="-155.437302" gradientTransform="matrix(0.0909178,0,0,0.0947059,9.020748,31.964672)">
<stop offset="0" style="stop-color:rgb(36.078431%,41.960784%,75.294118%);stop-opacity:1;"/>
<stop offset="1" style="stop-color:rgb(47.45098%,52.54902%,79.607843%);stop-opacity:1;"/>
</linearGradient>
<linearGradient id="linear4" gradientUnits="userSpaceOnUse" x1="254" y1="106.5" x2="254" y2="74.75" gradientTransform="matrix(1.015152,0,0,1.010101,78.893951,125.924011)">
<stop offset="0" style="stop-color:rgb(69.019608%,74.509804%,77.254902%);stop-opacity:1;"/>
<stop offset="1" style="stop-color:rgb(81.176471%,84.705882%,86.27451%);stop-opacity:1;"/>
</linearGradient>
</defs>
<g id="surface1">
<path style=" stroke:none;fill-rule:nonzero;fill:url(#linear0);" d="M 15.875 42.050781 L 39.691406 42.050781 L 39.691406 44.035156 L 15.875 44.035156 Z M 15.875 42.050781 "/>
<path style=" stroke:none;fill-rule:nonzero;fill:url(#radial0);" d="M 39.691406 42.050781 L 43.660156 42.050781 L 43.660156 40.066406 L 39.691406 40.066406 Z M 39.691406 42.050781 "/>
<path style=" stroke:none;fill-rule:nonzero;fill:url(#radial1);" d="M 15.875 42.050781 L 11.90625 42.050781 L 11.90625 44.035156 L 15.875 44.035156 Z M 15.875 42.050781 "/>
<path style=" stroke:none;fill-rule:nonzero;fill:url(#radial2);" d="M 15.875 42.050781 L 11.90625 42.050781 L 11.90625 40.066406 L 15.875 40.066406 Z M 15.875 42.050781 "/>
<path style=" stroke:none;fill-rule:nonzero;fill:url(#radial3);" d="M 39.691406 42.050781 L 43.660156 42.050781 L 43.660156 44.035156 L 39.691406 44.035156 Z M 39.691406 42.050781 "/>
<path style=" stroke:none;fill-rule:nonzero;fill:url(#linear1);" d="M 5.953125 4.34375 L 25.800781 4.34375 C 26.894531 4.34375 27.785156 5.234375 27.785156 6.328125 L 27.785156 20.21875 C 27.785156 21.316406 26.894531 22.207031 25.800781 22.207031 L 5.953125 22.207031 C 4.859375 22.207031 3.96875 21.316406 3.96875 20.21875 L 3.96875 6.328125 C 3.96875 5.234375 4.859375 4.34375 5.953125 4.34375 Z M 5.953125 4.34375 "/>
<path style="fill-rule:nonzero;fill:url(#linear2);stroke-width:3;stroke-linecap:round;stroke-linejoin:miter;stroke:rgb(12.941177%,12.941177%,12.941177%);stroke-opacity:1;stroke-miterlimit:4;" d="M 105.823228 -9.936249 C 94.116012 -9.936249 84.658582 -0.478819 84.658582 11.270059 L 84.658582 21.852382 L 254.017409 21.852382 L 254.017409 11.270059 C 254.017409 -0.478819 244.559979 -9.936249 232.852764 -9.936249 Z M 105.823228 -9.936249 " transform="matrix(0.093759,0,0,0.093759,0,20.158175)"/>
<path style="fill-rule:nonzero;fill:rgb(77.254903%,79.215688%,91.37255%);fill-opacity:0.392157;stroke-width:3;stroke-linecap:round;stroke-linejoin:miter;stroke:rgb(12.941177%,12.941177%,12.941177%);stroke-opacity:1;stroke-miterlimit:4;" d="M 105.823228 0.646073 C 108.739616 0.646073 111.114389 3.020847 111.114389 5.978898 C 111.114389 8.895286 108.739616 11.270059 105.823228 11.270059 C 102.90684 11.270059 100.532066 8.895286 100.532066 5.978898 C 100.532066 3.020847 102.90684 0.646073 105.823228 0.646073 Z M 105.823228 0.646073 " transform="matrix(0.093759,0,0,0.093759,0,20.158175)"/>
<path style="fill-rule:nonzero;fill:rgb(77.254903%,79.215688%,91.37255%);fill-opacity:0.392157;stroke-width:3;stroke-linecap:round;stroke-linejoin:miter;stroke:rgb(12.941177%,12.941177%,12.941177%);stroke-opacity:1;stroke-miterlimit:4;" d="M 126.987873 0.646073 C 129.904261 0.646073 132.279035 3.020847 132.279035 5.978898 C 132.279035 8.895286 129.904261 11.270059 126.987873 11.270059 C 124.071485 11.270059 121.696712 8.895286 121.696712 5.978898 C 121.696712 3.020847 124.071485 0.646073 126.987873 0.646073 Z M 126.987873 0.646073 " transform="matrix(0.093759,0,0,0.093759,0,20.158175)"/>
<path style="fill-rule:nonzero;fill:rgb(77.254903%,79.215688%,91.37255%);fill-opacity:0.392157;stroke-width:3;stroke-linecap:round;stroke-linejoin:miter;stroke:rgb(12.941177%,12.941177%,12.941177%);stroke-opacity:1;stroke-miterlimit:4;" d="M 148.152519 0.646073 C 151.068907 0.646073 153.44368 3.020847 153.44368 5.978898 C 153.44368 8.895286 151.068907 11.270059 148.152519 11.270059 C 145.236131 11.270059 142.861357 8.895286 142.861357 5.978898 C 142.861357 3.020847 145.236131 0.646073 148.152519 0.646073 Z M 148.152519 0.646073 " transform="matrix(0.093759,0,0,0.093759,0,20.158175)"/>
<path style=" stroke:none;fill-rule:nonzero;fill:rgb(0%,0%,0%);fill-opacity:0.235294;" d="M 5.953125 22.171875 C 4.855469 22.171875 3.96875 21.285156 3.96875 20.1875 L 3.96875 19.9375 C 3.96875 21.039062 4.855469 21.921875 5.953125 21.921875 L 25.800781 21.921875 C 26.898438 21.921875 27.785156 21.039062 27.785156 19.9375 L 27.785156 20.1875 C 27.785156 21.285156 26.898438 22.171875 25.800781 22.171875 Z M 5.953125 22.171875 "/>
<path style=" stroke:none;fill-rule:nonzero;fill:rgb(100%,100%,100%);fill-opacity:0.392157;" d="M 5.960938 4.457031 C 4.859375 4.457031 3.976562 5.339844 3.976562 6.441406 L 3.976562 6.6875 C 3.976562 5.589844 4.859375 4.703125 5.960938 4.703125 L 25.804688 4.703125 C 26.90625 4.703125 27.789062 5.589844 27.789062 6.6875 L 27.789062 6.441406 C 27.789062 5.339844 26.90625 4.457031 25.804688 4.457031 Z M 5.960938 4.457031 "/>
<path style=" stroke:none;fill-rule:nonzero;fill:rgb(12.941177%,12.941177%,12.941177%);fill-opacity:0.94902;" d="M 5.953125 4.203125 C 4.777344 4.203125 3.828125 5.152344 3.828125 6.328125 L 3.828125 20.21875 C 3.828125 21.394531 4.777344 22.347656 5.953125 22.347656 L 25.800781 22.347656 C 26.972656 22.347656 27.925781 21.394531 27.925781 20.21875 L 27.925781 6.328125 C 27.925781 5.152344 26.972656 4.203125 25.800781 4.203125 Z M 5.953125 4.484375 L 25.800781 4.484375 C 26.824219 4.484375 27.644531 5.304688 27.644531 6.328125 L 27.644531 20.21875 C 27.644531 21.246094 26.824219 22.066406 25.800781 22.066406 L 5.953125 22.066406 C 4.929688 22.066406 4.109375 21.246094 4.109375 20.21875 L 4.109375 6.328125 C 4.109375 5.304688 4.929688 4.484375 5.953125 4.484375 Z M 5.953125 4.484375 "/>
<path style="fill-rule:nonzero;fill:rgb(77.254903%,79.215688%,91.37255%);fill-opacity:0.392157;stroke-width:3;stroke-linecap:round;stroke-linejoin:miter;stroke:rgb(12.941177%,12.941177%,12.941177%);stroke-opacity:1;stroke-miterlimit:4;" d="M 232.852764 0.646073 C 235.769152 0.646073 238.143925 3.020847 238.143925 5.978898 C 238.143925 8.895286 235.769152 11.270059 232.852764 11.270059 C 229.894713 11.270059 227.561602 8.895286 227.561602 5.978898 C 227.561602 3.020847 229.894713 0.646073 232.852764 0.646073 Z M 232.852764 0.646073 " transform="matrix(0.093759,0,0,0.093759,0,20.158175)"/>
<path style=" stroke:none;fill-rule:nonzero;fill:url(#linear3);" d="M 13.832031 17.242188 L 41.734375 17.242188 C 42.796875 17.242188 43.660156 18.140625 43.660156 19.25 L 43.660156 40.046875 C 43.660156 41.152344 42.796875 42.050781 41.734375 42.050781 L 13.832031 42.050781 C 12.769531 42.050781 11.90625 41.152344 11.90625 40.046875 L 11.90625 19.25 C 11.90625 18.140625 12.769531 17.242188 13.832031 17.242188 Z M 13.832031 17.242188 "/>
<path style="fill-rule:nonzero;fill:url(#linear4);stroke-width:3.037869;stroke-linecap:round;stroke-linejoin:miter;stroke:rgb(12.941177%,12.941177%,12.941177%);stroke-opacity:1;stroke-miterlimit:4;" d="M 201.397434 201.418567 C 189.481905 201.418567 181.565995 211.084311 179.899487 222.791526 L 179.899487 233.498837 L 412.752251 233.498837 L 412.752251 222.791526 C 412.752251 210.959323 403.169833 201.418567 391.254304 201.418567 Z M 201.397434 201.418567 " transform="matrix(0.093759,0,0,0.093759,0,20.158175)"/>
<path style=" stroke:none;fill-rule:nonzero;fill:rgb(0%,0%,0%);fill-opacity:0.235294;" d="M 13.832031 42.070312 C 12.765625 42.070312 11.90625 41.175781 11.90625 40.066406 L 11.90625 39.570312 C 11.90625 40.679688 12.765625 41.574219 13.832031 41.574219 L 41.734375 41.574219 C 42.800781 41.574219 43.660156 40.679688 43.660156 39.570312 L 43.660156 40.066406 C 43.660156 41.175781 42.800781 42.070312 41.734375 42.070312 Z M 13.832031 42.070312 "/>
<path style="fill-rule:nonzero;fill:rgb(77.254903%,79.215688%,91.37255%);fill-opacity:0.392157;stroke-width:3.037869;stroke-linecap:round;stroke-linejoin:miter;stroke:rgb(12.941177%,12.941177%,12.941177%);stroke-opacity:1;stroke-miterlimit:4;" d="M 205.813679 212.125878 C 208.77173 212.125878 211.188166 214.500651 211.188166 217.458702 C 211.188166 220.416753 208.77173 222.791526 205.813679 222.791526 C 202.855628 222.791526 200.439192 220.416753 200.439192 217.458702 C 200.439192 214.500651 202.855628 212.125878 205.813679 212.125878 Z M 205.813679 212.125878 " transform="matrix(0.093759,0,0,0.093759,0,20.158175)"/>
<path style="fill-rule:nonzero;fill:rgb(77.254903%,79.215688%,91.37255%);fill-opacity:0.392157;stroke-width:3.037869;stroke-linecap:round;stroke-linejoin:miter;stroke:rgb(12.941177%,12.941177%,12.941177%);stroke-opacity:1;stroke-miterlimit:4;" d="M 227.311626 212.125878 C 230.269677 212.125878 232.686113 214.500651 232.686113 217.458702 C 232.686113 220.416753 230.269677 222.791526 227.311626 222.791526 C 224.353575 222.791526 221.937139 220.416753 221.937139 217.458702 C 221.937139 214.500651 224.353575 212.125878 227.311626 212.125878 Z M 227.311626 212.125878 " transform="matrix(0.093759,0,0,0.093759,0,20.158175)"/>
<path style="fill-rule:nonzero;fill:rgb(77.254903%,79.215688%,91.37255%);fill-opacity:0.392157;stroke-width:3.037869;stroke-linecap:round;stroke-linejoin:miter;stroke:rgb(12.941177%,12.941177%,12.941177%);stroke-opacity:1;stroke-miterlimit:4;" d="M 248.767911 212.125878 C 251.767624 212.125878 254.142397 214.500651 254.142397 217.458702 C 254.142397 220.416753 251.767624 222.791526 248.767911 222.791526 C 245.80986 222.791526 243.435086 220.416753 243.435086 217.458702 C 243.435086 214.500651 245.80986 212.125878 248.767911 212.125878 Z M 248.767911 212.125878 " transform="matrix(0.093759,0,0,0.093759,0,20.158175)"/>
<path style="fill-rule:nonzero;fill:rgb(77.254903%,79.215688%,91.37255%);fill-opacity:0.392157;stroke-width:3.037869;stroke-linecap:round;stroke-linejoin:miter;stroke:rgb(12.941177%,12.941177%,12.941177%);stroke-opacity:1;stroke-miterlimit:4;" d="M 386.213118 212.125878 C 389.171169 212.125878 391.587605 214.500651 391.587605 217.458702 C 391.587605 220.416753 389.171169 222.791526 386.213118 222.791526 C 383.255068 222.791526 380.838632 220.416753 380.838632 217.458702 C 380.838632 214.500651 383.255068 212.125878 386.213118 212.125878 Z M 386.213118 212.125878 " transform="matrix(0.093759,0,0,0.093759,0,20.158175)"/>
<path style=" stroke:none;fill-rule:nonzero;fill:rgb(100%,100%,100%);fill-opacity:0.392157;" d="M 13.832031 17.242188 C 12.765625 17.242188 11.90625 18.136719 11.90625 19.25 L 11.90625 19.746094 C 11.90625 18.632812 12.765625 17.738281 13.832031 17.738281 L 41.734375 17.738281 C 42.800781 17.738281 43.660156 18.632812 43.660156 19.746094 L 43.660156 19.25 C 43.660156 18.136719 42.800781 17.242188 41.734375 17.242188 Z M 13.832031 17.242188 "/>
<path style=" stroke:none;fill-rule:nonzero;fill:rgb(12.941177%,12.941177%,12.941177%);fill-opacity:1;" d="M 13.832031 17.105469 C 12.6875 17.105469 11.769531 18.066406 11.769531 19.25 L 11.769531 40.046875 C 11.769531 41.226562 12.6875 42.191406 13.832031 42.191406 L 41.734375 42.191406 C 42.878906 42.191406 43.800781 41.226562 43.800781 40.046875 L 43.800781 19.25 C 43.800781 18.066406 42.878906 17.105469 41.734375 17.105469 Z M 13.832031 17.382812 L 41.734375 17.382812 C 42.722656 17.382812 43.519531 18.210938 43.519531 19.25 L 43.519531 40.046875 C 43.519531 41.085938 42.722656 41.910156 41.734375 41.910156 L 13.832031 41.910156 C 12.84375 41.910156 12.046875 41.085938 12.046875 40.046875 L 12.046875 19.25 C 12.046875 18.210938 12.84375 17.382812 13.832031 17.382812 Z M 13.832031 17.382812 "/>
</g>
</svg>
